;FLAVOR:Marlin
;TIME:6291
;Filament used: 5.16166m
;Layer height: 0.28
;MINX:63.86
;MINY:49.976
;MINZ:0.28
;MAXX:248.14
;MAXY:265.03
;MAXZ:4.76
;Generated with Cura_SteamEngine 4.6.0
M140 S65
M105
M190 S65
M104 S210
M105
M109 S210
M82 ;absolute extrusion mode
M201 X500.00 Y500.00 Z100.00 E5000.00 ;Setup machine max acceleration
M203 X500.00 Y500.00 Z10.00 E50.00 ;Setup machine max feedrate
M204 P500.00 R1000.00 T500.00 ;Setup Print/Retract/Travel acceleration
M205 X8.00 Y8.00 Z0.40 E5.00 ;Setup Jerk
M220 S100 ;Reset Feedrate
M221 S100 ;Reset Flowrate

M280 P0 S160 ; BLTouch alarm release
G4 P100 ; delay for BLTouch
G28 ;Home
G29 ; auto bed leveling

G92 E0 ;Reset Extruder
G1 Z2.0 F3000 ;Move Z Axis up
G1 X10.1 Y20 Z0.28 F5000.0 ;Move to start position
G1 X10.1 Y200.0 Z0.28 F1500.0 E15 ;Draw the first line
G1 X10.4 Y200.0 Z0.28 F5000.0 ;Move to side a little
G1 X10.4 Y20 Z0.28 F1500.0 E30 ;Draw the second line
G92 E0 ;Reset Extruder
G1 Z2.0 F3000 ;Move Z Axis up
G92 E0
G92 E0
G1 F2700 E-5.3
;LAYER_COUNT:17
;LAYER:0
M107
G0 F6000 X124.379 Y50.811 Z0.28
;TYPE:SKIRT
G1 F2700 E0
G1 F1200 X124.74 Y50.838 E0.01807
G1 X125.396 Y50.9 E0.05097
G1 X125.942 Y50.967 E0.07844
G1 X126.565 Y51.065 E0.10993
G1 X127.388 Y51.225 E0.15179
G1 X128.118 Y51.396 E0.18922
G1 X129.016 Y51.647 E0.23578
G1 X129.625 Y51.834 E0.26759
G1 X132.118 Y52.559 E0.39722
G1 X134.588 Y53.203 E0.52467
G1 X137.053 Y53.773 E0.65099
G1 X139.531 Y54.27 E0.77718
G1 X142.083 Y54.709 E0.90647
G1 X144.541 Y55.06 E1.03044
G1 X147.11 Y55.352 E1.15953
G1 X149.646 Y55.569 E1.28662
G1 X152.138 Y55.711 E1.41124
G1 X154.708 Y55.785 E1.53961
G1 X157.242 Y55.787 E1.66613
G1 X159.772 Y55.716 E1.7925
G1 X162.302 Y55.574 E1.91902
G1 X164.873 Y55.356 E2.04785
G1 X167.363 Y55.074 E2.17297
G1 X169.873 Y54.718 E2.29955
G1 X172.388 Y54.288 E2.42694
G1 X174.885 Y53.788 E2.55409
G1 X177.352 Y53.221 E2.68048
G1 X179.823 Y52.579 E2.80795
G1 X182.263 Y51.871 E2.9348
G1 X182.916 Y51.664 E2.969
G1 X183.437 Y51.514 E2.99607
G1 X183.846 Y51.408 E3.01717
G1 X184.158 Y51.333 E3.03319
G1 X184.84 Y51.179 E3.0681
G1 X185.487 Y51.063 E3.10092
G1 X185.486 Y51.055 E3.10132
G1 X185.788 Y51.007 E3.11659
G1 X186.198 Y50.951 E3.13725
G1 X186.819 Y50.878 E3.16847
G1 X187.619 Y50.815 E3.20854
G1 X188.375 Y50.786 E3.24631
G1 X188.918 Y50.78 E3.27342
G1 X189.186 Y50.784 E3.28681
G1 X189.688 Y50.804 E3.31189
G1 X190.847 Y50.885 E3.3699
G1 X191.496 Y50.968 E3.40257
G1 X192.159 Y51.074 E3.43609
G1 X192.556 Y51.145 E3.45623
G1 X192.83 Y51.2 E3.47018
G1 X193.464 Y51.349 E3.5027
G1 X194.072 Y51.512 E3.53413
G1 X194.535 Y51.648 E3.55822
G1 X194.848 Y51.748 E3.57463
G1 X195.166 Y51.865 E3.59155
G1 X195.169 Y51.857 E3.59197
G1 X195.688 Y52.047 E3.61957
G1 X195.931 Y52.142 E3.6326
G1 X196.36 Y52.321 E3.6558
G1 X197.228 Y52.714 E3.70338
G1 X197.983 Y53.105 E3.74583
G1 X198.203 Y53.228 E3.75841
G1 X198.807 Y53.575 E3.79319
G1 X198.824 Y53.585 E3.79418
G1 X199.259 Y53.856 E3.81977
G1 X199.677 Y54.135 E3.84486
G1 X199.932 Y54.317 E3.8605
G1 X200.612 Y54.817 E3.90265
G1 X201.133 Y55.227 E3.93575
G1 X201.794 Y55.789 E3.97907
G1 X202.071 Y56.037 E3.99763
G1 X202.456 Y56.4 E4.02405
G1 X202.692 Y56.637 E4.04075
G1 X202.921 Y56.875 E4.05724
G1 X203.141 Y57.111 E4.07335
G1 X203.644 Y57.668 E4.11082
G1 X204.028 Y58.133 E4.14093
G1 X204.035 Y58.128 E4.14136
G1 X204.224 Y58.364 E4.15646
G1 X204.222 Y58.366 E4.1566
G1 X204.51 Y58.738 E4.18009
G1 X204.891 Y59.26 E4.21235
G1 X204.886 Y59.263 E4.21265
G1 X205.21 Y59.72 E4.24062
G1 X205.541 Y60.243 E4.27152
G1 X205.664 Y60.448 E4.28346
G1 X205.97 Y60.974 E4.31384
G1 X206.341 Y61.674 E4.3534
G1 X206.662 Y62.34 E4.39031
G1 X206.88 Y62.823 E4.41677
G1 X206.966 Y63.028 E4.42787
G1 X207.164 Y63.538 E4.45518
G1 X207.534 Y64.578 E4.5103
G1 X207.543 Y64.605 E4.51172
G1 X207.676 Y65.038 E4.53434
G1 X207.831 Y65.594 E4.56315
G1 X207.889 Y65.821 E4.57485
G1 X207.986 Y66.239 E4.59628
G1 X208.073 Y66.651 E4.6173
G1 X208.184 Y67.265 E4.64846
G1 X208.22 Y67.503 E4.66047
G1 X208.326 Y68.273 E4.69928
G1 X208.366 Y68.609 E4.71618
G1 X208.483 Y69.739 E4.7729
G1 X208.592 Y70.959 E4.83405
G1 X208.89 Y73.492 E4.9614
G1 X209.255 Y75.982 E5.08705
G1 X209.695 Y78.489 E5.21414
G1 X210.203 Y80.97 E5.34058
G1 X210.8 Y83.512 E5.47095
G1 X211.426 Y85.879 E5.5932
G1 X212.162 Y88.372 E5.72298
G1 X212.929 Y90.727 E5.84665
G1 X213.798 Y93.156 E5.97545
G1 X214.721 Y95.524 E6.10235
G1 X215.705 Y97.849 E6.2284
G1 X216.768 Y100.18 E6.35632
G1 X217.876 Y102.434 E6.48172
G1 X219.1 Y104.756 E6.61278
G1 X220.121 Y106.602 E6.7181
G1 X221.141 Y108.489 E6.8252
G1 X221.589 Y109.337 E6.87309
G1 X222.522 Y111.138 E6.97436
G1 X222.966 Y112.015 E7.02344
G1 X223.88 Y113.851 E7.12584
G1 X224.337 Y114.793 E7.17812
G1 X225.217 Y116.645 E7.2805
G1 X225.614 Y117.498 E7.32747
G1 X226.514 Y119.48 E7.43616
G1 X226.847 Y120.232 E7.47722
G1 X227.672 Y122.131 E7.5806
G1 X228.11 Y123.167 E7.63676
G1 X228.835 Y124.921 E7.73152
G1 X229.258 Y125.978 E7.78836
G1 X229.261 Y125.977 E7.78852
G1 X230.022 Y127.909 E7.8922
G1 X230.31 Y128.66 E7.93236
G1 X231.073 Y130.703 E8.04124
G1 X231.4 Y131.6 E8.08891
G1 X232.107 Y133.597 E8.19469
G1 X232.414 Y134.489 E8.24179
G1 X233.058 Y136.412 E8.34304
G1 X233.382 Y137.412 E8.39553
G1 X233.999 Y139.367 E8.49788
G1 X234.268 Y140.244 E8.54369
G1 X234.87 Y142.269 E8.64917
G1 X235.131 Y143.175 E8.69624
G1 X235.7 Y145.222 E8.80232
G1 X235.946 Y146.139 E8.84973
G1 X236.464 Y148.133 E8.95259
G1 X236.698 Y149.063 E9.00047
G1 X237.197 Y151.127 E9.10649
G1 X237.415 Y152.082 E9.1554
G1 X237.417 Y152.082 E9.1555
G1 X237.848 Y154.004 E9.25385
G1 X238.067 Y155.027 E9.30608
G1 X238.483 Y157.053 E9.40935
G1 X238.668 Y157.995 E9.45728
G1 X238.86 Y159.018 E9.50925
G1 X239.381 Y161.597 E9.64062
G1 X239.953 Y164.063 E9.76702
G1 X240.589 Y166.495 E9.89253
G1 X241.314 Y168.974 E10.02149
G1 X242.079 Y171.343 E10.14578
G1 X242.941 Y173.771 E10.27442
G1 X243.863 Y176.154 E10.402
G1 X244.825 Y178.445 E10.52606
G1 X245.71 Y180.363 E10.63153
G1 X246.272 Y181.604 E10.69955
G1 X246.51 Y182.176 E10.73048
G1 X246.605 Y182.425 E10.74379
G1 X246.889 Y183.282 E10.78887
G1 X247.071 Y184.029 E10.82726
G1 X247.133 Y184.334 E10.8428
G1 X247.273 Y185.226 E10.88788
G1 X247.333 Y186.089 E10.93107
G1 X247.34 Y186.347 E10.94396
G1 X247.325 Y187.25 E10.98905
G1 X247.244 Y188.051 E11.02925
G1 X247.206 Y188.32 E11.04281
G1 X247.07 Y189.073 E11.08102
G1 X247.063 Y189.105 E11.08265
G1 X246.928 Y189.65 E11.11069
G1 X246.775 Y190.191 E11.13876
G1 X246.661 Y190.564 E11.15823
G1 X246.382 Y191.346 E11.19969
G1 X246.385 Y191.347 E11.19984
G1 X245.415 Y193.844 E11.33359
G1 X244.562 Y196.24 E11.46058
G1 X243.776 Y198.657 E11.58748
G1 X243.061 Y201.094 E11.71428
G1 X242.415 Y203.546 E11.84089
G1 X241.84 Y206.006 E11.96703
G1 X241.33 Y208.515 E12.09486
G1 X240.902 Y210.972 E12.21938
G1 X240.534 Y213.586 E12.35119
G1 X240.496 Y213.79 E12.36155
G1 X240.195 Y216.043 E12.47504
G1 X240.051 Y217.052 E12.52592
G1 X239.747 Y219.067 E12.62767
G1 X239.597 Y220.001 E12.6749
G1 X239.272 Y221.921 E12.77213
G1 X238.966 Y223.565 E12.85562
G1 X238.819 Y224.255 E12.89085
G1 X238.639 Y225.037 E12.93091
G1 X238.637 Y225.037 E12.93101
G1 X238.577 Y225.296 E12.94429
G1 X238.357 Y226.149 E12.98827
G1 X238.272 Y226.458 E13.00427
G1 X238.017 Y227.324 E13.04935
G1 X237.619 Y228.568 E13.11456
G1 X237.249 Y229.617 E13.1701
G1 X237.077 Y230.064 E13.19401
G1 X236.548 Y231.373 E13.2645
G1 X236.385 Y231.753 E13.28515
G1 X235.852 Y232.932 E13.34975
G1 X235.674 Y233.306 E13.37043
G1 X235.019 Y234.611 E13.44334
G1 X234.85 Y234.913 E13.46062
G1 X234.858 Y234.917 E13.46106
G1 X234.458 Y235.645 E13.50254
G1 X234.234 Y236.031 E13.52482
G1 X233.686 Y236.957 E13.57854
G1 X233.384 Y237.436 E13.60682
G1 X232.299 Y239.051 E13.70396
G1 X231.869 Y239.662 E13.74126
G1 X231.599 Y240.029 E13.76401
G1 X231.492 Y240.165 E13.77265
G1 X230.21 Y241.774 E13.87537
G1 X229.761 Y242.313 E13.9104
G1 X229.093 Y243.072 E13.96088
G1 X228.603 Y243.602 E13.99692
G1 X227.925 Y244.307 E14.04575
G1 X227.083 Y245.139 E14.10486
G1 X226.382 Y245.79 E14.15262
G1 X225.358 Y246.697 E14.22092
G1 X224.831 Y247.141 E14.25533
G1 X224.631 Y247.294 E14.2679
G1 X224.636 Y247.3 E14.26829
G1 X224.103 Y247.72 E14.30217
G1 X222.866 Y248.66 E14.37974
G1 X222.598 Y248.857 E14.39635
G1 X221.825 Y249.4 E14.44352
G1 X221.419 Y249.668 E14.46781
G1 X220.081 Y250.523 E14.54709
G1 X219.79 Y250.702 E14.56414
G1 X219.122 Y251.095 E14.60284
G1 X218.758 Y251.3 E14.6237
G1 X218.659 Y251.362 E14.62953
G1 X216.976 Y252.316 E14.72612
G1 X214.793 Y253.639 E14.85357
G1 X212.642 Y255.024 E14.98131
G1 X210.564 Y256.449 E15.10711
G1 X208.523 Y257.935 E15.23317
G1 X206.502 Y259.494 E15.36061
G1 X204.842 Y260.863 E15.46804
G1 X203.859 Y261.648 E15.53085
G1 X203.129 Y262.18 E15.57595
G1 X202.591 Y262.514 E15.60757
G1 X202.147 Y262.761 E15.63294
G1 X201.337 Y263.16 E15.67802
G1 X200.615 Y263.444 E15.71676
G1 X200.238 Y263.576 E15.7367
G1 X199.373 Y263.836 E15.7818
G1 X198.585 Y264.003 E15.82202
G1 X198.193 Y264.07 E15.84187
G1 X197.297 Y264.183 E15.88696
G1 X196.694 Y264.214 E15.91711
G1 X195.997 Y264.229 E15.95192
G1 X195.623 Y264.23 E15.97059
G1 X195.161 Y264.223 E15.99366
G1 X194.594 Y264.199 E16.022
G1 X193.974 Y264.146 E16.05307
G1 X193.433 Y264.078 E16.08029
G1 X192.935 Y264 E16.10546
G1 X190.977 Y263.666 E16.20463
G1 X188.451 Y263.31 E16.332
G1 X185.935 Y263.027 E16.45841
G1 X183.395 Y262.814 E16.58568
G1 X180.868 Y262.673 E16.71205
G1 X178.336 Y262.604 E16.83852
G1 X175.803 Y262.608 E16.96499
G1 X173.26 Y262.682 E17.09201
G1 X169.94 Y262.886 E17.25809
G1 X168.838 Y262.973 E17.31328
G1 X167.853 Y263.043 E17.36258
G1 X165.733 Y263.173 E17.46863
G1 X164.769 Y263.223 E17.51683
G1 X162.687 Y263.314 E17.62088
G1 X161.636 Y263.351 E17.67339
G1 X159.561 Y263.404 E17.77703
G1 X158.586 Y263.422 E17.82572
G1 X156.538 Y263.44 E17.92798
G1 X155.44 Y263.44 E17.9828
G1 X153.408 Y263.422 E18.08426
G1 X152.292 Y263.402 E18.13999
G1 X150.262 Y263.349 E18.24138
G1 X149.228 Y263.311 E18.29304
G1 X147.104 Y263.218 E18.39919
G1 X146.208 Y263.171 E18.44399
G1 X143.947 Y263.03 E18.5571
G1 X143.08 Y262.968 E18.6005
G1 X142.071 Y262.888 E18.65103
G1 X139.379 Y262.714 E18.78572
G1 X136.883 Y262.623 E18.91043
G1 X134.314 Y262.602 E19.0387
G1 X131.772 Y262.653 E19.16565
G1 X129.257 Y262.774 E19.29137
G1 X126.709 Y262.97 E19.41896
G1 X124.173 Y263.237 E19.54628
G1 X121.669 Y263.573 E19.67243
G1 X119.718 Y263.885 E19.77107
G1 X118.757 Y264.049 E19.81975
G1 X118.183 Y264.13 E19.84869
G1 X117.614 Y264.184 E19.87723
G1 X117.326 Y264.203 E19.89164
G1 X116.733 Y264.225 E19.92127
G1 X115.948 Y264.227 E19.96046
G1 X115.349 Y264.216 E19.99038
G1 X114.405 Y264.155 E20.03761
G1 X114.181 Y264.13 E20.04886
G1 X113.022 Y263.933 E20.10756
G1 X112.818 Y263.886 E20.11801
G1 X112.036 Y263.673 E20.15848
G1 X111.827 Y263.607 E20.16942
G1 X110.775 Y263.209 E20.22558
G1 X110.585 Y263.125 E20.23595
G1 X109.776 Y262.724 E20.28104
G1 X109.449 Y262.524 E20.30018
G1 X109.445 Y262.531 E20.30058
G1 X109.171 Y262.366 E20.31655
G1 X108.251 Y261.741 E20.37208
G1 X107.947 Y261.506 E20.39126
G1 X107.595 Y261.218 E20.41397
G1 X106.5 Y260.297 E20.48541
G1 X104.486 Y258.697 E20.61384
G1 X102.469 Y257.187 E20.73964
G1 X100.394 Y255.723 E20.86644
G1 X98.264 Y254.308 E20.99411
G1 X96.116 Y252.967 E21.12055
G1 X94.221 Y251.867 E21.22995
G1 X94.185 Y251.844 E21.23208
G1 X92.162 Y250.664 E21.34901
G1 X91.825 Y250.458 E21.36873
G1 X90.725 Y249.758 E21.43383
G1 X90.362 Y249.516 E21.45562
G1 X89.315 Y248.785 E21.51937
G1 X88.995 Y248.552 E21.53914
G1 X87.906 Y247.727 E21.60735
G1 X87.636 Y247.503 E21.62487
G1 X87.631 Y247.51 E21.6253
G1 X87.01 Y247.005 E21.66526
G1 X87.016 Y246.997 E21.66576
G1 X86.618 Y246.67 E21.69148
G1 X85.174 Y245.366 E21.78862
G1 X84.637 Y244.862 E21.8254
G1 X84.285 Y244.516 E21.85004
G1 X84.126 Y244.351 E21.86148
G1 X82.849 Y242.993 E21.95455
G1 X82.297 Y242.38 E21.99574
G1 X81.59 Y241.55 E22.05018
G1 X81.261 Y241.143 E22.07631
G1 X80.536 Y240.211 E22.13526
G1 X79.854 Y239.284 E22.19273
G1 X79.357 Y238.565 E22.23637
G1 X78.756 Y237.66 E22.29061
G1 X78.592 Y237.404 E22.30579
G1 X78.107 Y236.619 E22.35186
G1 X77.74 Y235.987 E22.38835
G1 X77.001 Y234.653 E22.46449
G1 X76.843 Y234.356 E22.48129
G1 X76.432 Y233.545 E22.52668
G1 X76.196 Y233.046 E22.55425
G1 X75.556 Y231.629 E22.63188
G1 X75.426 Y231.327 E22.64829
G1 X75.1 Y230.528 E22.69138
G1 X74.888 Y229.972 E22.72109
G1 X74.512 Y228.957 E22.77513
G1 X74.355 Y228.495 E22.7995
G1 X74.354 Y228.495 E22.79955
G1 X73.956 Y227.225 E22.866
G1 X73.51 Y225.634 E22.9485
G1 X73.431 Y225.3 E22.96563
G1 X73.007 Y223.38 E23.06381
G1 X72.815 Y222.421 E23.11264
G1 X72.735 Y221.971 E23.13546
G1 X72.387 Y219.906 E23.24002
G1 X72.241 Y218.985 E23.28658
G1 X71.941 Y217.001 E23.38676
G1 X71.782 Y215.884 E23.44309
G1 X71.472 Y213.587 E23.55882
G1 X71.165 Y211.404 E23.66889
G1 X70.739 Y208.899 E23.79576
G1 X70.241 Y206.396 E23.92318
G1 X69.675 Y203.92 E24.04999
G1 X69.042 Y201.476 E24.17605
G1 X68.331 Y199.017 E24.30385
G1 X67.563 Y196.616 E24.42972
G1 X66.724 Y194.228 E24.55609
G1 X65.572 Y191.247 E24.71566
G1 X65.375 Y190.672 E24.74601
G1 X65.234 Y190.217 E24.76979
G1 X65.062 Y189.611 E24.80124
G1 X64.809 Y188.416 E24.86223
G1 X64.768 Y188.142 E24.87606
G1 X64.674 Y187.244 E24.92114
G1 X64.66 Y186.354 E24.96559
G1 X64.667 Y186.098 E24.97837
G1 X64.731 Y185.197 E25.02347
G1 X64.825 Y184.565 E25.05538
G1 X64.875 Y184.288 E25.06943
G1 X65.075 Y183.407 E25.11454
G1 X65.226 Y182.907 E25.14061
G1 X65.393 Y182.429 E25.1659
G1 X65.466 Y182.236 E25.1762
G1 X65.716 Y181.633 E25.20879
G1 X65.912 Y181.202 E25.23243
G1 X66.752 Y179.405 E25.33147
G1 X67.753 Y177.096 E25.45713
G1 X68.676 Y174.794 E25.58096
G1 X69.569 Y172.368 E25.71003
G1 X70.382 Y169.948 E25.8375
G1 X71.119 Y167.53 E25.96371
G1 X71.788 Y165.09 E26.09003
G1 X72.392 Y162.614 E26.21728
G1 X73.128 Y159.087 E26.39718
G1 X73.129 Y159.078 E26.39763
G1 X73.334 Y157.988 E26.453
G1 X73.533 Y156.979 E26.50435
G1 X73.953 Y154.941 E26.60825
G1 X74.163 Y153.961 E26.65829
G1 X74.615 Y151.943 E26.76154
G1 X74.803 Y151.137 E26.80287
G1 X74.806 Y151.138 E26.80302
G1 X74.821 Y151.055 E26.80724
G1 X75.306 Y149.055 E26.90999
G1 X75.565 Y148.026 E26.96297
G1 X76.079 Y146.052 E27.06481
G1 X76.323 Y145.144 E27.11176
G1 X76.901 Y143.071 E27.21921
G1 X77.139 Y142.249 E27.26194
G1 X77.772 Y140.116 E27.37303
G1 X78.025 Y139.292 E27.41606
G1 X78.68 Y137.223 E27.52442
G1 X78.932 Y136.451 E27.56497
G1 X79.618 Y134.405 E27.67271
G1 X79.942 Y133.466 E27.72231
G1 X80.626 Y131.534 E27.82464
G1 X80.963 Y130.609 E27.87379
G1 X81.693 Y128.658 E27.9778
G1 X82.022 Y127.802 E28.02359
G1 X82.806 Y125.809 E28.13052
G1 X83.13 Y125.008 E28.17366
G1 X83.133 Y125.009 E28.17382
G1 X83.161 Y124.93 E28.178
G1 X83.945 Y123.039 E28.28021
G1 X84.35 Y122.085 E28.33196
G1 X85.134 Y120.278 E28.43031
G1 X85.568 Y119.3 E28.48373
G1 X86.436 Y117.392 E28.58839
G1 X86.823 Y116.563 E28.63407
G1 X87.684 Y114.753 E28.73414
G1 X88.171 Y113.752 E28.78972
G1 X89.052 Y111.982 E28.88844
G1 X89.523 Y111.053 E28.94045
G1 X90.469 Y109.232 E29.0429
G1 X90.916 Y108.389 E29.09055
G1 X91.904 Y106.562 E29.19425
G1 X92.492 Y105.497 E29.25499
G1 X92.499 Y105.481 E29.25586
G1 X93.569 Y103.514 E29.36766
G1 X94.713 Y101.262 E29.49378
G1 X95.799 Y98.968 E29.62051
G1 X96.814 Y96.656 E29.74658
G1 X97.782 Y94.272 E29.87505
G1 X98.657 Y91.926 E30.00006
G1 X99.487 Y89.496 E30.12827
G1 X100.234 Y87.088 E30.25415
G1 X100.916 Y84.646 E30.38075
G1 X101.529 Y82.189 E30.50718
G1 X102.08 Y79.677 E30.63559
G1 X102.551 Y77.193 E30.76182
G1 X102.957 Y74.662 E30.88981
